X:1
T: Joanna and Gordon's Wedding
C:Bruce Shawyer
R:Reel
Q:232
K:Am
M:4/4
L:1/16
A4|:"C"C4E4G4E4|"Am"A8A8|A8A4c4|"G"B8-B4B4|
"G"B4B2c2d4B4|"Am"c4c2d2e4c4|"E7"e2d2c2B2A4^G4|"Am"A8-A4A4:|
|:"G"B8B4d4|"Am"c8c8|"D"A8A8|A8-A4A4|
"Am"c4c2d2e4c4|"G"B4B2c2d4B4|"E7"e2d2c2B2A4^G4|"Am"A8-A4:|
